icons/sparkle-16.svg

<svg width="16" height="16" viewBox="0 0 16 16" fill="none" xmlns="http://www.w3.org/2000/svg">
<path d="M7.19792 0.569909C7.4734 -0.182412 8.53775 -0.182268 8.81338 0.569909L9.66167 2.88707C10.2501 4.49437 11.517 5.76108 13.1242 6.34962L15.4414 7.19791C16.1938 7.47339 16.1938 8.53789 15.4414 8.81337L13.1242 9.66166C11.5169 10.2502 10.2502 11.5169 9.66167 13.1242L8.81338 15.4414C8.5379 16.1938 7.4734 16.1938 7.19792 15.4414L6.34963 13.1242C5.76109 11.517 4.49437 10.2501 2.88708 9.66166L0.569916 8.81337C-0.182263 8.53774 -0.182402 7.47339 0.569916 7.19791L2.88708 6.34962C4.49448 5.76113 5.76114 4.49448 6.34963 2.88707L7.19792 0.569909ZM7.75986 3.40308C7.01951 5.4253 5.42531 7.0195 3.40309 7.75985L2.72973 8.00613L3.40309 8.25241C5.42528 8.99275 7.01949 10.586 7.75986 12.6082L8.00614 13.2806L8.25241 12.6082C8.99277 10.5861 10.5861 8.99276 12.6082 8.25241L13.2806 8.00613L12.6082 7.75985C10.586 7.01949 8.99276 5.42527 8.25241 3.40308L8.00614 2.72973L7.75986 3.40308Z" fill="black"/>
</svg>

<svg xmlns="http://www.w3.org/2000/svg" width="16" height="16" viewBox="0 0 16 16"><path d="M7.198.57c.275-.752 1.34-.752 1.615 0l.849 2.317a5.819 5.819 0 0 0 3.462 3.463l2.317.848c.753.275.753 1.34 0 1.615l-2.317.849a5.815 5.815 0 0 0-3.462 3.462l-.849 2.317c-.275.753-1.34.753-1.615 0l-.848-2.317a5.819 5.819 0 0 0-3.463-3.462L.57 8.813c-.752-.275-.752-1.34 0-1.615l2.317-.848A5.823 5.823 0 0 0 6.35 2.887L7.198.57Zm.562 2.833A7.323 7.323 0 0 1 3.403 7.76l-.673.246.673.246a7.324 7.324 0 0 1 4.357 4.356l.246.673.246-.673a7.322 7.322 0 0 1 4.356-4.356l.673-.246-.673-.246a7.324 7.324 0 0 1-4.356-4.357l-.246-.673-.246.673Z"/></svg>
